!!!!SEGMENT: pl-wn--mus-iii-65-947-cim--004_sowinski-wojciech--swiety-wojciech-meczennik-no-4-trjo-aniolow.krn
!!!cenid: 18xx:3597
!!!COM: Sowiński, Wojciech
!!!COM-rismid: pe30008543
!!!CDT:
!!!CNT:
!!!GTL: Święty Wojciech męczennik
!!!OTL: No. 4. Trjo aniolow
!!!PDT:
!!!AGN: 1877
!!!SMS-siglum: PL-Wn
!!!SMS-shelfmark: Mus.III.65.947 Cim.
!!!SMS-shelfwork: 004 G
!!!SMS-variant:
!!!SMS-altvar:
!!!NIFC-rismid:
!!!URL-scan: https://polona.pl/item/swiety-wojciech-meczennik-oratorjo-w-trzech-czesciach-dzielo-66-spiew-z-fortepianem,MTkzODI1Mzc/242/#item
!!!ONB-nifc: UWAGA: oratorium zawiera w źródle 28 numerów podzielonych na 30 plików (rozdzielenie w No. 6 - osobno Recitativo oraz Aria matki i No. 10 - osobno Recitativo, arja i chór oraz Sen). Polecam widok miniatur na Polonie. Uwaga co do obsady: prosimy umieszczać tylko partie występujące w danym numerze (nie całą obsadę oratorium)
!!!key: b
**kern	**kern	**dynam	**kern	**text	**dynam	**kern	**text	**dynam	**kern	**text	**dynam
*part5	*part4	*part4	*part3	*part3	*part3	*part2	*part2	*part2	*part1	*part1	*part1
*staff5	*staff4	*	*staff3	*staff3	*	*staff2	*staff2	*	*staff1	*staff1	*
*I"Piano	*I"Piano	*	*I"Alt.	*	*	*I"Ms sopran	*	*	*I"Sopran	*	*
*I'P-no	*I'pf	*	*I'A	*	*	*I'Ms	*	*	*I'S	*	*
*ICklav	*ICklav	*	*ICvox	*	*	*ICvox	*	*	*ICvox	*	*
*Ipiano	*Ipiano	*	*Ialto	*	*	*Imezzo	*	*	*Isoprn	*	*
*clefF4	*clefG2	*	*clefG2	*	*	*clefG2	*	*	*clefG2	*	*
*k[b-e-]	*k[b-e-]	*	*k[b-e-]	*	*	*k[b-e-]	*	*	*k[b-e-]	*	*
*b:	*b:	*	*b:	*	*	*b:	*	*	*b:	*	*
*M3/4	*M3/4	*	*M3/4	*	*	*M3/4	*	*	*M3/4	*	*
=1	=1	=1	=1	=1	=1	=1	=1	=1	=1	=1	=1
!	!LO:TX:b:t=harpes	!	!	!	!	!	!	!	!	!	!
!	!LO:TX:a:t=Andte non troppo	!	!	!	!	!	!	!	!	!	!
2.FF\ 2.F	(16A/LL	f	2.r	.	.	2.r	.	.	2.r	.	.
.	16c/	.	.	.	.	.	.	.	.	.	.
.	16e-/	.	.	.	.	.	.	.	.	.	.
.	16c/JJ	<	.	.	.	.	.	.	.	.	.
.	16f/LL	.	.	.	.	.	.	.	.	.	.
.	16e-/	.	.	.	.	.	.	.	.	.	.
.	16a/	.	.	.	.	.	.	.	.	.	.
.	16f/JJ	.	.	.	.	.	.	.	.	.	.
.	16cc\LL	.	.	.	.	.	.	.	.	.	.
.	16a\	.	.	.	.	.	.	.	.	.	.
.	16ee-\	.	.	.	.	.	.	.	.	.	.
.	16cc\JJ	[	.	.	.	.	.	.	.	.	.
=2	=2	=2	=2	=2	=2	=2	=2	=2	=2	=2	=2
2.FF/ 2.F	16ff\LL	.	2.r	.	.	2.r	.	.	2.r	.	.
.	16ee-\	>	.	.	.	.	.	.	.	.	.
.	16gg\	.	.	.	.	.	.	.	.	.	.
.	16ee-\JJ	.	.	.	.	.	.	.	.	.	.
.	16cc\LL	.	.	.	.	.	.	.	.	.	.
.	16ee-\	.	.	.	.	.	.	.	.	.	.
.	16a\	.	.	.	.	.	.	.	.	.	.
.	16cc\JJ	.	.	.	.	.	.	.	.	.	.
.	16f/LL	.	.	.	.	.	.	.	.	.	.
.	16a/	.	.	.	.	.	.	.	.	.	.
.	16e-/	.	.	.	.	.	.	.	.	.	.
.	16f/JJ)	]	.	.	.	.	.	.	.	.	.
=3	=3	=3	=3	=3	=3	=3	=3	=3	=3	=3	=3
2BB-\ 2B-	(16d/LL	.	2.r	.	.	2.r	.	.	2.r	.	.
.	16f/	.	.	.	.	.	.	.	.	.	.
.	16b-/	.	.	.	.	.	.	.	.	.	.
.	16f/JJ	.	.	.	.	.	.	.	.	.	.
.	16dd/LL	.	.	.	.	.	.	.	.	.	.
.	16b-/	.	.	.	.	.	.	.	.	.	.
.	16f/	.	.	.	.	.	.	.	.	.	.
.	16d/JJ	.	.	.	.	.	.	.	.	.	.
4BB-\ 4B-	16f/LL	.	.	.	.	.	.	.	.	.	.
.	16d/	.	.	.	.	.	.	.	.	.	.
.	16b-/	<	.	.	.	.	.	.	.	.	.
.	16f/JJ	.	.	.	.	.	.	.	.	.	.
=4	=4	=4	=4	=4	=4	=4	=4	=4	=4	=4	=4
2BB-\ 2B-	16dd\LL	.	2.r	.	.	2.r	.	.	2.r	.	.
!	!	!	!LO:LB:g=original	!	!	!LO:LB:g=original	!	!	!LO:LB:g=original	!	!
.	16f\	.	.	.	.	.	.	.	.	.	.
.	16dd\	.	.	.	.	.	.	.	.	.	.
.	16b-\JJ	.	.	.	.	.	.	.	.	.	.
.	16ff\LL	.	.	.	.	.	.	.	.	.	.
.	16dd\	.	.	.	.	.	.	.	.	.	.
.	16b-\	.	.	.	.	.	.	.	.	.	.
.	16f\JJ	[	.	.	.	.	.	.	.	.	.
4BB-\ 4B-	16b-\LL	.	.	.	.	.	.	.	.	.	.
!LO:LB:g=original	!	!	!	!	!	!	!	!	!	!	!
.	16f\	.	.	.	.	.	.	.	.	.	.
.	16dd\	.	.	.	.	.	.	.	.	.	.
.	16b-\JJ)	.	.	.	.	.	.	.	.	.	.
!	!LO:LB:g=original	!	!	!	!	!	!	!	!	!	!
=5	=5	=5	=5	=5	=5	=5	=5	=5	=5	=5	=5
4BB-\ 4B-	(16g\LL	<	2.r	.	.	2.r	.	.	2.r	.	.
.	16b-\	.	.	.	.	.	.	.	.	.	.
.	16dd-X\	.	.	.	.	.	.	.	.	.	.
.	16b-\JJ	.	.	.	.	.	.	.	.	.	.
4En\	16gg\LL	[	.	.	.	.	.	.	.	.	.
.	16dd-\	.	.	.	.	.	.	.	.	.	.
.	16b-\	.	.	.	.	.	.	.	.	.	.
.	16g\JJ	>	.	.	.	.	.	.	.	.	.
4G\	16b-\LL	.	.	.	.	.	.	.	.	.	.
.	16g\	.	.	.	.	.	.	.	.	.	.
.	16ddny\	.	.	.	.	.	.	.	.	.	.
.	16b-\JJ	]	.	.	.	.	.	.	.	.	.
=6	=6	=6	=6	=6	=6	=6	=6	=6	=6	=6	=6
4BB-\ 4B-	16a\LL	<	2.r	.	.	2.r	.	.	2.r	.	.
.	16g-X\	.	.	.	.	.	.	.	.	.	.
.	16ee-\	.	.	.	.	.	.	.	.	.	.
.	16a\JJ	.	.	.	.	.	.	.	.	.	.
4G-X\	16gg\LL	.	.	.	.	.	.	.	.	.	.
.	16ee-\	[ >	.	.	.	.	.	.	.	.	.
.	16cc\	.	.	.	.	.	.	.	.	.	.
.	16a\JJ	.	.	.	.	.	.	.	.	.	.
4E-\	16g-\LL	.	.	.	.	.	.	.	.	.	.
.	16a\	.	.	.	.	.	.	.	.	.	.
.	16ee-\	.	.	.	.	.	.	.	.	.	.
.	16cc\JJ	]	.	.	.	.	.	.	.	.	.
=7	=7	=7	=7	=7	=7	=7	=7	=7	=7	=7	=7
2BB-\ 2B-	16ff\LL	.	2.r	.	.	2.r	.	.	2.r	.	.
.	16ddn\	.	.	.	.	.	.	.	.	.	.
.	16b-\	.	.	.	.	.	.	.	.	.	.
.	16f\JJ	.	.	.	.	.	.	.	.	.	.
.	16dd/LL	.	.	.	.	.	.	.	.	.	.
.	16b-/	.	.	.	.	.	.	.	.	.	.
.	16f/	.	.	.	.	.	.	.	.	.	.
.	16d/JJ	.	.	.	.	.	.	.	.	.	.
4BB-\ 4B-	16f/LL	.	.	.	.	.	.	.	.	.	.
.	16d/	.	.	.	.	.	.	.	.	.	.
.	16b-/	.	.	.	.	.	.	.	.	.	.
.	16f/JJ	.	.	.	.	.	.	.	.	.	.
=8	=8	=8	=8	=8	=8	=8	=8	=8	=8	=8	=8
2AA\ 2D 2F#X 2A	16dd/LL	f	2.r	.	.	2.r	.	.	2.r	.	.
.	16cc/	.	.	.	.	.	.	.	.	.	.
.	16f#X/	.	.	.	.	.	.	.	.	.	.
.	16d/JJ	.	.	.	.	.	.	.	.	.	.
.	16f#/LL	.	.	.	.	.	.	.	.	.	.
.	16d/	.	.	.	.	.	.	.	.	.	.
.	16cc/	.	.	.	.	.	.	.	.	.	.
.	16f#/JJ	.	.	.	.	.	.	.	.	.	.
4AA\ 4D 4F# 4A	16dd/LL	.	.	.	.	.	.	.	.	.	.
.	16cc/	.	.	.	.	.	.	.	.	.	.
.	16f#/	.	.	.	.	.	.	.	.	.	.
.	16d/JJ	.	.	.	.	.	.	.	.	.	.
=9	=9	=9	=9	=9	=9	=9	=9	=9	=9	=9	=9
2GG/ 2G	16dd/LL	.	2.r	.	.	2.r	.	.	2.r	.	.
!	!	!	!LO:LB:g=original	!	!	!LO:LB:g=original	!	!	!LO:LB:g=original	!	!
.	16b-/	.	.	.	.	.	.	.	.	.	.
.	16g/	.	.	.	.	.	.	.	.	.	.
.	16d/JJ	.	.	.	.	.	.	.	.	.	.
.	16g/LL	.	.	.	.	.	.	.	.	.	.
.	16d/	.	.	.	.	.	.	.	.	.	.
.	16b-/	.	.	.	.	.	.	.	.	.	.
.	16g/JJ	.	.	.	.	.	.	.	.	.	.
4EEn^/ 4En	16cc/LL	.	.	.	.	.	.	.	.	.	.
!LO:LB:g=original	!	!	!	!	!	!	!	!	!	!	!
.	16b-/	.	.	.	.	.	.	.	.	.	.
.	16g/	.	.	.	.	.	.	.	.	.	.
.	16c/JJ)	.	.	.	.	.	.	.	.	.	.
!	!LO:LB:g=original	!	!	!	!	!	!	!	!	!	!
=10	=10	=10	=10	=10	=10	=10	=10	=10	=10	=10	=10
4.FF/ 4.F	(16f/LL	.	2.r	.	.	2.r	.	.	2.r	.	.
.	16d/	.	.	.	.	.	.	.	.	.	.
.	16b-/	.	.	.	.	.	.	.	.	.	.
.	16f/JJ)	.	.	.	.	.	.	.	.	.	.
.	16dd/LL	.	.	.	.	.	.	.	.	.	.
.	16f/	.	.	.	.	.	.	.	.	.	.
8DD^/L 8D	16b-^/	.	.	.	.	.	.	.	.	.	.
.	16f/JJ	.	.	.	.	.	.	.	.	.	.
8EE-X^/ 8E-X	16b-^/LL	.	.	.	.	.	.	.	.	.	.
.	16g/	.	.	.	.	.	.	.	.	.	.
8FF^/J 8F	16a^/	.	.	.	.	.	.	.	.	.	.
.	16cc/JJ	.	.	.	.	.	.	.	.	.	.
=11	=11	=11	=11	=11	=11	=11	=11	=11	=11	=11	=11
!	!	!	!LO:TX:a:t=Alt	!	!	!LO:TX:a:t=Mosopran	!	!	!LO:TX:a:t=Sopran	!	!
2.BBB-/ 2.BB-	16b-/LL	<	4r	.	.	4r	.	.	4r	.	.
.	16d/	.	.	.	.	.	.	.	.	.	.
.	16f/	.	.	.	.	.	.	.	.	.	.
.	16b-/JJ	.	.	.	.	.	.	.	.	.	.
.	16dd/LL	.	4r	.	.	4r	.	.	4r	.	.
.	16b-/	.	.	.	.	.	.	.	.	.	.
.	16f/	.	.	.	.	.	.	.	.	.	.
.	16d/JJ	.	.	.	.	.	.	.	.	.	.
!	!	!	!	!	!LO:DY:a	!	!	!LO:DY:a	!	!	!LO:DY:a
.	16f/LL	.	4b-\	Ho-	f	4dd\	Ho-	f	4ff\	Ho-	f
.	16b-/	.	.	.	.	.	.	.	.	.	.
.	16dd/	.	.	.	.	.	.	.	.	.	.
.	16b-/JJ	[[	.	.	.	.	.	.	.	.	.
=12	=12	=12	=12	=12	=12	=12	=12	=12	=12	=12	=12
2.BB-\ 2.B-	16ff\LL	f	2.b-\	-zan-	.	2.dd\	-zan-	.	2.ff\	-zan-	.
.	16dd\	.	.	.	.	.	.	.	.	.	.
.	16b-\	.	.	.	.	.	.	.	.	.	.
.	16f\JJ	.	.	.	.	.	.	.	.	.	.
.	16dd/LL	.	.	.	.	.	.	.	.	.	.
.	16b-/	.	.	.	.	.	.	.	.	.	.
.	16f/	.	.	.	.	.	.	.	.	.	.
.	16d/JJ	.	.	.	.	.	.	.	.	.	.
.	16f/LL	.	.	.	.	.	.	.	.	.	.
.	16d/	.	.	.	.	.	.	.	.	.	.
.	16b-/	.	.	.	.	.	.	.	.	.	.
.	16f/JJ	.	.	.	.	.	.	.	.	.	.
=13	=13	=13	=13	=13	=13	=13	=13	=13	=13	=13	=13
2BB-\ 2B-	16dd/LL	.	(4b-\	-na	.	2b-\	-na	.	2dd\	-na	.
.	16b-/	.	.	.	.	.	.	.	.	.	.
.	16f/	.	.	.	.	.	.	.	.	.	.
.	16d/JJ	.	.	.	.	.	.	.	.	.	.
.	16f/LL	.	4d/)	.	.	.	.	.	.	.	.
.	16d/	.	.	.	.	.	.	.	.	.	.
.	16b-/	.	.	.	.	.	.	.	.	.	.
.	16f/JJ	.	.	.	.	.	.	.	.	.	.
4BB-\ 4B-	16dd/LL	.	4f/	Ho-	.	4b-\	Ho-	.	4dd\	Ho-	.
.	16f/	.	.	.	.	.	.	.	.	.	.
.	16b-/	.	.	.	.	.	.	.	.	.	.
.	16dd/JJ	.	.	.	.	.	.	.	.	.	.
=14	=14	=14	=14	=14	=14	=14	=14	=14	=14	=14	=14
4BB-\ 4B-	16ff^\LL	.	(4B-/	-zan-	.	(4dd\	-zan	.	(4ff\	-zan-	.
.	16dd\	.	.	.	.	.	.	.	.	.	.
.	16b-\	.	.	.	.	.	.	.	.	.	.
.	16f\JJ	.	.	.	.	.	.	.	.	.	.
4BB-\ 4F 4A	16ee-^\LL	.	4A/	.	.	4cc\	.	.	4ee-\	.	.
.	16cc\	.	.	.	.	.	.	.	.	.	.
.	16a\	.	.	.	.	.	.	.	.	.	.
.	16f\JJ	.	.	.	.	.	.	.	.	.	.
4BB-\ 4F 4B-	16dd^\LL	.	4B-/)	.	.	4b-\)	.	.	4dd\)	.	.
.	16b-\	.	.	.	.	.	.	.	.	.	.
.	16f\	.	.	.	.	.	.	.	.	.	.
.	16d\JJ	.	.	.	.	.	.	.	.	.	.
=15	=15	=15	=15	=15	=15	=15	=15	=15	=15	=15	=15
2.FF/ 2.F	16f\LL	.	2.f/	-na!	.	(4b-/	na!	.	2.cc\	-na!	.
.	16g\	.	.	.	.	.	.	.	.	.	.
.	16a\	.	.	.	.	.	.	.	.	.	.
.	16b-\	.	.	.	.	.	.	.	.	.	.
.	16cc\	.	.	.	.	2a/)	.	.	.	.	.
.	16f\	.	.	.	.	.	.	.	.	.	.
.	16a\	.	.	.	.	.	.	.	.	.	.
.	16cc\	.	.	.	.	.	.	.	.	.	.
.	16ff\	.	.	.	.	.	.	.	.	.	.
.	16cc\	.	.	.	.	.	.	.	.	.	.
.	16a\	.	.	.	.	.	.	.	.	.	.
.	16f\JJ	.	.	.	.	.	.	.	.	.	.
=16	=16	=16	=16	=16	=16	=16	=16	=16	=16	=16	=16
!	!	!	!	!	!	!	!	!	!	!	!LO:DY:a
!	!	!	!	!	!	!	!	!LO:DY:a	!	!	!LO:DY:a
2GG/ 2G	16r	.	4r	.	.	4g/	Śpie-	p	4b-\	Śpie-	p <
.	16B-/LL	.	.	.	.	.	.	.	.	.	.
.	16d/	<	.	.	.	.	.	.	.	.	.
.	16g/JJ	.	.	.	.	.	.	.	.	.	.
.	16b-/LL	.	4r	.	.	4g/	-waj-	.	4b-\	-waj-	.
.	16g/	.	.	.	.	.	.	.	.	.	.
.	16d/	.	.	.	.	.	.	.	.	.	.
.	16B-/JJ	.	.	.	.	.	.	.	.	.	.
4EEn/ 4En	16cc/LL	.	4en/	Śpie-	.	4b-\	-cie	.	4cc\	-cie	[[
.	16b-/	.	.	.	.	.	.	.	.	.	.
.	16g/	[	.	.	.	.	.	.	.	.	.
.	16c/JJ	.	.	.	.	.	.	.	.	.	.
=17	=17	=17	=17	=17	=17	=17	=17	=17	=17	=17	=17
2FF/ 2F	16dd/LL	.	2f/	-waj-	.	2b-\	Pa-	.	2dd\	Pa-	.
.	16b-/	.	.	.	.	.	.	.	.	.	.
.	16f/	.	.	.	.	.	.	.	.	.	.
.	16d/JJ	.	.	.	.	.	.	.	.	.	.
.	16f/LL	.	.	.	.	.	.	.	.	.	.
.	16d/	.	.	.	.	.	.	.	.	.	.
.	16b-/	.	.	.	.	.	.	.	.	.	.
.	16f/JJ	.	.	.	.	.	.	.	.	.	.
4FF/ 4F	16a/LL 16cc	.	4f/	-cie	.	(8a\L	-nu	.	8cc\	-nu	.
.	16f/	.	.	.	.	.	.	.	.	.	.
.	16b-/ 16dd	.	.	.	.	8b-\J)	.	.	8b-\	śpie-	.
.	16f/JJ	.	.	.	.	.	.	.	.	.	.
=18	=18	=18	=18	=18	=18	=18	=18	=18	=18	=18	=18
2AA\ 2A	16r	.	2.f^/	Pa-	.	2a^/	słoń-	.	(2ff^\	-waj-	.
.	16f\LL	.	.	.	.	.	.	.	.	.	.
.	16a\	.	.	.	.	.	.	.	.	.	.
.	16cc\JJ	.	.	.	.	.	.	.	.	.	.
.	16ff^\LL	.	.	.	.	.	.	.	.	.	.
.	16cc\	.	.	.	.	.	.	.	.	.	.
.	16a\	.	.	.	.	.	.	.	.	.	.
.	16f\JJ	.	.	.	.	.	.	.	.	.	.
4FF/ 4F	16ee-^\LL	.	.	.	.	8a/	-ca	.	8cc\L	.	.
.	16cc\	.	.	.	.	.	.	.	.	.	.
.	16a\	.	.	.	.	8a/	śpie-	.	8dd\J)	.	.
.	16f\JJ	.	.	.	.	.	.	.	.	.	.
=19	=19	=19	=19	=19	=19	=19	=19	=19	=19	=19	=19
4BB-\ 4B-	16dd/LL	.	2.B-/	-nu	.	(4b-/	-waj-	.	[2.b-\	-cie	.
!	!	!	!LO:PB:g=original	!	!	!	!	!	!LO:PB:g=original	!	!
.	16b-/	.	.	.	.	.	.	.	.	.	.
.	16f/	.	.	.	.	.	.	.	.	.	.
.	16d/	.	.	.	.	.	.	.	.	.	.
4FF/ 4F	16f/	.	.	.	.	4d/	.	.	.	.	.
.	16b-/	.	.	.	.	.	.	.	.	.	.
.	16dd/	.	.	.	.	.	.	.	.	.	.
.	16b-/	.	.	.	.	.	.	.	.	.	.
4DD/ 4D	16f/	.	.	.	.	4f/)	.	.	.	.	.
!LO:PB:g=original	!	!	!	!	!	!LO:PB:g=original	!	!	!	!	!
.	16d/	.	.	.	.	.	.	.	.	.	.
.	16b-/	.	.	.	.	.	.	.	.	.	.
.	16f/JJ	.	.	.	.	.	.	.	.	.	.
!	!LO:PB:g=original	!	!	!	!	!	!	!	!	!	!
=20	=20	=20	=20	=20	=20	=20	=20	=20	=20	=20	=20
2BBB-/ 2BB-	16d/LL	.	4B-/	słoń-	.	4b-\	-cie	.	4b-\]	.	.
.	16f/	.	.	.	.	.	.	.	.	.	.
.	16b-/	.	.	.	.	.	.	.	.	.	.
.	16f/JJ	.	.	.	.	.	.	.	.	.	.
.	16dd/LL	.	(8A/L	-ca	.	4r	.	.	4r	.	.
.	16b-/	.	.	.	.	.	.	.	.	.	.
.	16f/	.	8B-/J)	.	.	.	.	.	.	.	.
.	16d/JJ	.	.	.	.	.	.	.	.	.	.
4BBB-/ 4BB-	16f/LL	.	4d/	a-	.	4r	.	.	4r	.	.
.	16d/	.	.	.	.	.	.	.	.	.	.
.	16b-/	.	.	.	.	.	.	.	.	.	.
.	16f/JJ	.	.	.	.	.	.	.	.	.	.
=21	=21	=21	=21	=21	=21	=21	=21	=21	=21	=21	=21
!	!	!	!	!	!	!	!	!LO:DY:a	!	!	!
2BB-\ 2B-	16dd/LL	.	4f/	-nie-	.	4.b-\	słoń-	f	2.r	.	.
.	16b-/	.	.	.	.	.	.	.	.	.	.
.	16f/	.	.	.	.	.	.	.	.	.	.
.	16d/JJ	.	.	.	.	.	.	.	.	.	.
.	16f/LL	.	4d/	-li	.	.	.	.	.	.	.
.	16d/	.	.	.	.	.	.	.	.	.	.
!	!	!	!	!	!	!	!	!LO:DY:a	!	!	!
.	16b-/	.	.	.	.	(8a\L	.	<	.	.	.
.	16f/JJ	.	.	.	.	.	.	.	.	.	.
4BB-\ 4B-	16dd\LL	.	4B-/	śpie-	.	8b-\J)	.	.	.	.	.
.	16f\	.	.	.	.	.	.	.	.	.	.
.	16b-\	.	.	.	.	8dd\	-ca	[[	.	.	.
.	16dd\JJ	.	.	.	.	.	.	.	.	.	.
=22	=22	=22	=22	=22	=22	=22	=22	=22	=22	=22	=22
*^	*	*	*	*	*	*	*	*	*	*	*
!	!	!	!	!	!	!	!	!	!	!	!	!LO:DY:a
4.B-/	2.BB-\	16ff\LL	.	((4.B-/	-waj-	.	(4ff\	słoń-	.	2.f/	słoń-	p
.	.	16dd\	.	.	.	.	.	.	.	.	.	.
.	.	16b-\	.	.	.	.	.	.	.	.	.	.
.	.	16f\JJ	.	.	.	.	.	.	.	.	.	.
.	.	16ee-\LL	.	.	.	.	4ee-\	.	.	.	.	.
.	.	16cc\	.	.	.	.	.	.	.	.	.	.
(8A/L	.	16a\	.	8A/L)	.	.	.	.	.	.	.	.
.	.	16f\JJ	.	.	.	.	.	.	.	.	.	.
8B-/	.	16dd/LL	.	8B-/	.	.	4dd\)	.	.	.	.	.
.	.	16f/	.	.	.	.	.	.	.	.	.	.
8d/J)	.	16en/	.	8d/J)	.	.	.	.	.	.	.	.
.	.	16f/JJ	.	.	.	.	.	.	.	.	.	.
*v	*v	*	*	*	*	*	*	*	*	*	*	*
=23	=23	=23	=23	=23	=23	=23	=23	=23	=23	=23	=23
!	!	!	!	!	!	!	!	!	!	!	!LO:DY:a
2F\ 2c	16a\LL	.	2f/	-cie	.	2cc\	-ca	.	2a/	-ca	p
.	16f\	.	.	.	.	.	.	.	.	.	.
.	16cc\	.	.	.	.	.	.	.	.	.	.
.	16a\	.	.	.	.	.	.	.	.	.	.
.	16ff\	.	.	.	.	.	.	.	.	.	.
.	16cc\	.	.	.	.	.	.	.	.	.	.
.	16a\	.	.	.	.	.	.	.	.	.	.
.	16f\	.	.	.	.	.	.	.	.	.	.
4r	16en\	.	4r	.	.	4r	.	.	4r	.	.
.	16f\	.	.	.	.	.	.	.	.	.	.
.	16g\	.	.	.	.	.	.	.	.	.	.
.	16a\JJ	.	.	.	.	.	.	.	.	.	.
=24	=24	=24	=24	=24	=24	=24	=24	=24	=24	=24	=24
!	!	!	!	!	!	!	!	!	!	!	!LO:DY:a
2GG/ 2G	16b-/LL	.	2.r	.	.	4r	.	.	2b-\	i	p
!	!	!	!LO:LB:g=original	!	!	!	!	!	!	!	!
.	16B-/	.	.	.	.	.	.	.	.	.	.
.	16d/	.	.	.	.	.	.	.	.	.	.
.	16g/JJ	.	.	.	.	.	.	.	.	.	.
.	16b-/LL	.	.	.	.	(8g/L	i	.	.	.	.
.	16g/	.	.	.	.	.	.	.	.	.	.
.	16d/	.	.	.	.	8f/J)	.	.	.	.	.
.	16B-/JJ	.	.	.	.	.	.	.	.	.	.
4EEn^/ 4En	16cc/LL	.	.	.	.	(8en/L	a-	.	4cc\	a-	.
!LO:LB:g=original	!	!	!	!	!	!	!	!	!LO:LB:g=original	!	!
.	16b-/	.	.	.	.	.	.	.	.	.	.
.	16g/	.	.	.	.	8g/J)	.	.	.	.	.
!	!	!	!	!	!	!LO:LB:g=original	!	!	!	!	!
.	16c/JJ	.	.	.	.	.	.	.	.	.	.
!	!LO:LB:g=original	!	!	!	!	!	!	!	!	!	!
=25	=25	=25	=25	=25	=25	=25	=25	=25	=25	=25	=25
2FF/ 2F	16dd/LL	.	4r	.	.	2f/	-nie-	.	2dd\	-nie-	.
.	16d/	.	.	.	.	.	.	.	.	.	.
.	16f/	.	.	.	.	.	.	.	.	.	.
.	16b-/JJ	.	.	.	.	.	.	.	.	.	.
.	16dd/LL	.	4b-\	i	.	.	.	.	.	.	.
.	16f/	.	.	.	.	.	.	.	.	.	.
.	16b-/	.	.	.	.	.	.	.	.	.	.
.	16dd/JJ	.	.	.	.	.	.	.	.	.	.
4GG^/ 4G	16een\LL	.	4g/	a-	.	4b-\	-li	.	(8een\L	-li	.
.	16b-\	.	.	.	.	.	.	.	.	.	.
.	16ee\	.	.	.	.	.	.	.	8dd\J)	.	.
.	16dd\JJ	.	.	.	.	.	.	.	.	.	.
=26	=26	=26	=26	=26	=26	=26	=26	=26	=26	=26	=26
4AA^\ 4A	16cc#X/LL	<	4a/	-nie-	.	4a/	śpie-	.	4cc#X\	śpie-	.
.	16a/	.	.	.	.	.	.	.	.	.	.
.	16en/	.	.	.	.	.	.	.	.	.	.
.	16a/	.	.	.	.	.	.	.	.	.	.
4AA^\ 4A	16cc#/	.	4A/ 4en	-li	.	4a/	-waj-	.	4cc#\	-waj-	.
.	16a/	.	.	.	.	.	.	.	.	.	.
.	16eeny/	.	.	.	.	.	.	.	.	.	.
.	16cc#/	.	.	.	.	.	.	.	.	.	.
!	!	!	!	!	!	!	!	!	!	!	!LO:DY:a
4AA^\ 4A	16a/	.	4A/ 4e	śpie-	.	(8a/L	-cie	.	4cc#\	-cie	<[
.	16e/	.	.	.	.	.	.	.	.	.	.
.	16cc#/	.	.	.	.	8g/J)	.	.	.	.	.
.	16a/JJ	[[	.	.	.	.	.	.	.	.	.
=27	=27	=27	=27	=27	=27	=27	=27	=27	=27	=27	=27
2DD/ 2D	16dd/LL	.	4.d/	-waj-	.	2.f#X/	Pa-	.	2.dd\	Pa-	.
.	16a/	.	.	.	.	.	.	.	.	.	.
.	16f#X/	.	.	.	.	.	.	.	.	.	.
.	16d/	.	.	.	.	.	.	.	.	.	.
.	16f#/	.	.	.	.	.	.	.	.	.	.
.	16d/	.	.	.	.	.	.	.	.	.	.
.	16a/	.	8d/	-cie	.	.	.	.	.	.	.
.	16f#/JJ	.	.	.	.	.	.	.	.	.	.
8D\ 8F#X	8d/	.	(8f#X/L	Pa-	.	.	.	.	.	.	.
8r	8r	.	8a/J)	.	.	.	.	.	.	.	.
=28	=28	=28	=28	=28	=28	=28	=28	=28	=28	=28	=28
!	!	!	!	!	!LO:DY:a	!	!	!LO:DY:a	!	!	!LO:DY:a
2DD/ 2D	16dd/LL	f	4.dd\	-nu!	f	4.f#X/	-nu!	f	4.d/	-nu!	f
.	16a/	.	.	.	.	.	.	.	.	.	.
.	16f#X/	.	.	.	.	.	.	.	.	.	.
.	16d/	.	.	.	.	.	.	.	.	.	.
.	16f#/	.	.	.	.	.	.	.	.	.	.
.	16d/	.	.	.	.	.	.	.	.	.	.
.	16f#/	.	8r	.	.	8d/	K'nie-	.	8f#X/	K'nie-	.
.	16a/	.	.	.	.	.	.	.	.	.	.
4DD/ 4D	16dd/	.	4r	.	.	(8f#/L	-mu	.	(8a\L	-mu	.
!LO:LB:g=original	!	!	!LO:LB:g=original	!	!	!	!	!	!	!	!
.	16a/	.	.	.	.	.	.	.	.	.	.
.	16f#/	.	.	.	.	8a/J)	.	.	8dd\J)	.	.
!	!	!	!	!	!	!LO:LB:g=original	!	!	!LO:LB:g=original	!	!
.	16d/JJ	.	.	.	.	.	.	.	.	.	.
!	!LO:LB:g=original	!	!	!	!	!	!	!	!	!	!
=29	=29	=29	=29	=29	=29	=29	=29	=29	=29	=29	=29
*^	*	*	*	*	*	*	*	*	*	*	*
2ryy	4DD\ [4D	4dd\	.	4r	.	.	2.dd^\	du-	.	2.ff#X^\	du-	.
.	2D\]	2a\ 2dd 2ff#X	.	(4d/	du-	.	.	.	.	.	.	.
(8en/L	.	.	.	8e-/L	.	.	.	.	.	.	.	.
8d/J)	.	.	.	8d/J)	.	.	.	.	.	.	.	.
*v	*v	*	*	*	*	*	*	*	*	*	*	*
=30	=30	=30	=30	=30	=30	=30	=30	=30	=30	=30	=30
8AA:\ 8En: 8c#X:	16a\LL	f	4c#X/	-sze	.	4a/	-sze	.	4een\	-sze	.
.	16cc#X\	.	.	.	.	.	.	.	.	.	.
8r	16een\	.	.	.	.	.	.	.	.	.	.
.	16aa\JJ	.	.	.	.	.	.	.	.	.	.
8AA:\ 8E: 8c#:	16a\LL	.	4c#/	du-	.	4a/	du-	.	4ee\	du-	.
.	16cc#\	.	.	.	.	.	.	.	.	.	.
8r	16ee\	.	.	.	.	.	.	.	.	.	.
.	16aa\JJ	.	.	.	.	.	.	.	.	.	.
8AA:\ 8E: 8c#:	16a\LL	.	4c#/	-sze	.	4a/	-sze	.	4ee\	-sze	.
.	16cc#\	.	.	.	.	.	.	.	.	.	.
8r	16ee\	.	.	.	.	.	.	.	.	.	.
.	16aa\JJ	.	.	.	.	.	.	.	.	.	.
=31	=31	=31	=31	=31	=31	=31	=31	=31	=31	=31	=31
2.DD/ 2.D	16ff#X\LL	.	[2.d/	wznieść	.	2a/	wznieść	.	(2.ff#X\	wznieść	.
.	16dd\	.	.	.	.	.	.	.	.	.	.
.	16a\	.	.	.	.	.	.	.	.	.	.
.	16f#X\JJ	.	.	.	.	.	.	.	.	.	.
.	16dd\LL	.	.	.	.	.	.	.	.	.	.
.	16a\	.	.	.	.	.	.	.	.	.	.
.	16f#\	.	.	.	.	.	.	.	.	.	.
.	16d\JJ	.	.	.	.	.	.	.	.	.	.
.	16f#/LL	.	.	.	.	8a/	k'nie-	.	.	.	.
.	16d/	.	.	.	.	.	.	.	.	.	.
.	16f#/	.	.	.	.	8a/	-mu	.	.	.	.
.	16a/JJ	.	.	.	.	.	.	.	.	.	.
=32	=32	=32	=32	=32	=32	=32	=32	=32	=32	=32	=32
4DD/ 4D	16dd/LL	.	2d/]	.	.	4.dd\	du-	.	4dd\)	.	.
.	16a/	.	.	.	.	.	.	.	.	.	.
.	16f#X/	.	.	.	.	.	.	.	.	.	.
.	16d/JJ	.	.	.	.	.	.	.	.	.	.
(8A\L	16f#/LL	.	.	.	.	.	.	.	4r	.	.
.	16d/	.	.	.	.	.	.	.	.	.	.
!	!	!	!	!	!	!	!	!LO:DY:a	!	!	!
8F#X\J)	16a/	.	.	.	.	8f#X/	-sze	<	.	.	.
.	16f#/JJ	.	.	.	.	.	.	.	.	.	.
!	!	!	!	!	!LO:DY:a	!	!	!	!	!	!LO:DY:a
4D\	16dd/LL	.	8a/	k'nie-	<	8a/	k'nie-	.	8f#X/	k'nie-	<
!LO:PB:g=original	!	!	!	!	!	!	!	!	!	!	!
.	16d/	.	.	.	.	.	.	.	.	.	.
.	16f#/	.	8f#X/	-mu	[[	8dd\	-mu	[[	8a/	-mu	[[
!	!	!	!LO:PB:g=original	!	!	!LO:PB:g=original	!	!	!LO:PB:g=original	!	!
.	16a/JJ	.	.	.	.	.	.	.	.	.	.
!	!LO:PB:g=original	!	!	!	!	!	!	!	!	!	!
=33	=33	=33	=33	=33	=33	=33	=33	=33	=33	=33	=33
*^	*	*	*	*	*	*	*	*	*	*	*
4DD/ 4D	4ryy	8dd\	.	(4.d/	du-	.	2.ff#X\	du-	.	2.dd\	du-	.
.	.	8r	.	.	.	.	.	.	.	.	.	.
8D/L	2D\	8a:\ 8dd: 8ff#X:	.	.	.	.	.	.	.	.	.	.
8En/	.	8r	.	8en/	.	.	.	.	.	.	.	.
8F#X/	.	8a:\ 8dd: 8ff#: 8aa:	.	8f#X/L	.	.	.	.	.	.	.	.
8G/J	.	8r	.	8g/J)	.	.	.	.	.	.	.	.
*v	*v	*	*	*	*	*	*	*	*	*	*	*
=34	=34	=34	=34	=34	=34	=34	=34	=34	=34	=34	=34
8AA\ 8A	16a\LL	.	4a/	-sze	.	4een\	-sze	.	4dd\	-sze	.
.	16dd\	.	.	.	.	.	.	.	.	.	.
8r	16een\	.	.	.	.	.	.	.	.	.	.
.	16aa\JJ	.	.	.	.	.	.	.	.	.	.
8AA\ 8A	16a\LL	.	4a/	du-	.	4cc#X\	du-	.	4aa\	du-	.
.	16cc#X\	.	.	.	.	.	.	.	.	.	.
8r	16ee\	.	.	.	.	.	.	.	.	.	.
.	16aa\JJ	.	.	.	.	.	.	.	.	.	.
8AA\ 8A	16a\LL	.	4a/	-sze	.	4cc#\	-sze	.	4aa\	-sze	.
.	16cc#\	.	.	.	.	.	.	.	.	.	.
8r	16ee\	.	.	.	.	.	.	.	.	.	.
.	16aa\JJ	.	.	.	.	.	.	.	.	.	.
=35	=35	=35	=35	=35	=35	=35	=35	=35	=35	=35	=35
[2.D\	16ff#X\LL	.	2d/	wznieść	.	2.dd\	wznieść	.	2.ff#X\	wnieść	.
.	16dd\	.	.	.	.	.	.	.	.	.	.
.	16a\	.	.	.	.	.	.	.	.	.	.
.	16f#X\JJ	.	.	.	.	.	.	.	.	.	.
.	8d/	.	.	.	.	.	.	.	.	.	.
.	8r	.	.	.	.	.	.	.	.	.	.
.	8en/L	.	8en/	k'nie-	.	.	.	.	.	.	.
.	8d/J	.	8d/	-mu	.	.	.	.	.	.	.
=36	=36	=36	=36	=36	=36	=36	=36	=36	=36	=36	=36
*^	*	*	*	*	*	*	*	*	*	*	*
!	!	!	!	!	!	!	!	!	!	!	!	!LO:DY:a
2d/	2.D\]	16r	.	2d/	du-	.	2.f#X/	du-	.	2.dd\	du-	p
.	.	(16f#X\LL	>	.	.	.	.	.	.	.	.	.
.	.	16a\	.	.	.	.	.	.	.	.	.	.
.	.	16ff#X\JJ)	.	.	.	.	.	.	.	.	.	.
.	.	4dd\	.	.	.	.	.	.	.	.	.	.
8en/L	.	4r	]]	(8en/L	-sze	.	.	.	.	.	.	.
8d/J	.	.	.	8d/J)	.	.	.	.	.	.	.	.
=37	=37	=37	=37	=37	=37	=37	=37	=37	=37	=37	=37	=37
!	!	!	!	!LO:TX:a:t=rall.	!	!	!LO:TX:a:t=rall.	!	!	!LO:TX:a:t=rall.	!	!
2d/	2.D\	16r	.	2d/	du-	.	2.f#X/	-sze	.	2dd\	-sze	.
!	!	!	!	!	!	!	!LO:LB:g=original	!	!	!	!	!
.	.	(16f#X\LL	.	.	.	.	.	.	.	.	.	.
!	!	!LO:TX:b:t=rall.	!	!	!	!	!	!	!	!	!	!
.	.	16a\	.	.	.	.	.	.	.	.	.	.
.	.	16ff#X\JJ)	.	.	.	.	.	.	.	.	.	.
.	.	4dd\	.	.	.	.	.	.	.	.	.	.
8e-X/L	.	4r	.	4e-X/	-sze	.	.	.	.	4dd\	i	.
!	!	!LO:LB:g=original	!	!LO:LB:g=original	!	!	!	!	!	!LO:LB:g=original	!	!
8d/J	.	.	.	.	.	.	.	.	.	.	.	.
!LO:LB:g=original	!	!	!	!	!	!	!	!	!	!	!	!
*v	*v	*	*	*	*	*	*	*	*	*	*	*
=38	=38	=38	=38	=38	=38	=38	=38	=38	=38	=38	=38
2.A\ 2.c	16r	p	2cn/	ser-	.	4a\	i	.	2ffn\	ser-	.
!	!LO:TX:b:t=colla voce.	!	!	!	!	!	!	!	!	!	!
.	(16fn\LL	.	.	.	.	.	.	.	.	.	.
.	16a\	.	.	.	.	.	.	.	.	.	.
.	16cc\JJ)	.	.	.	.	.	.	.	.	.	.
.	2ffn\	.	.	.	.	4ccn\	ser-	.	.	.	.
!	!	!	!	!	!	!	!	!	!	!	!LO:DY:a
.	.	.	4fn/	-ca	.	4ee-\	-ca!	.	4a/	-ca	pp
=39	=39	=39	=39	=39	=39	=39	=39	=39	=39	=39	=39
2BB-\ 2B-	(16dd/LL	.	4B-/	wznieść	.	4dd\	Spoj-	.	4b-\	wznieść!	.
.	16b-/	.	.	.	.	.	.	.	.	.	.
.	16f/	.	.	.	.	.	.	.	.	.	.
!	!LO:TX:b:t=a tempo.	!	!	!	!	!	!	!	!	!	!
.	16d/	.	.	.	.	.	.	.	.	.	.
!	!	!	!LO:TX:a:t=a tempo.	!	!	!LO:TX:a:t=a tempo.	!	!	!LO:TX:a:t=a tempo	!	!
.	16f/	.	4r	.	.	4dd\	-rze-	.	4r	.	.
.	16d/	.	.	.	.	.	.	.	.	.	.
.	16b-/	.	.	.	.	.	.	.	.	.	.
.	16f/	.	.	.	.	.	.	.	.	.	.
4BB-\ 4B-	16dd/	.	4r	.	.	4dd\	-niem	.	4r	.	.
.	16b-/	.	.	.	.	.	.	.	.	.	.
.	16f/	.	.	.	.	.	.	.	.	.	.
.	16d/JJ	.	.	.	.	.	.	.	.	.	.
=40	=40	=40	=40	=40	=40	=40	=40	=40	=40	=40	=40
2BB-\ 2B-	16dd/LL	.	4.b-\	Spoj-	.	(4.dd\	Twór-	.	2.r	.	.
.	16b-/	.	.	.	.	.	.	.	.	.	.
.	16f/	.	.	.	.	.	.	.	.	.	.
.	16d/	.	.	.	.	.	.	.	.	.	.
.	16f/	.	.	.	.	.	.	.	.	.	.
.	16d/	.	.	.	.	.	.	.	.	.	.
!	!	!	!	!	!LO:DY:a	!	!	!	!	!	!
.	16b-/	.	(8b-\L	-rze-	<	8dd\L	.	.	.	.	.
.	16f/	.	.	.	.	.	.	.	.	.	.
!	!	!	!	!	!	!	!	!LO:DY:a	!	!	!
4BB-\ 4B-	16dd/	.	8a\J)	.	.	8cc\J)	.	<	.	.	.
.	16f/	.	.	.	.	.	.	.	.	.	.
.	16b-/	.	8b-\	-niem	[	8dd\	-cy	[[	.	.	.
.	16dd/JJ	.	.	.	.	.	.	.	.	.	.
=41	=41	=41	=41	=41	=41	=41	=41	=41	=41	=41	=41
*^	*	*	*	*	*	*	*	*	*	*	*
!	!	!	!	!	!	!LO:DY:a	!	!	!LO:DY:a	!	!	!
(4B-/	2.BB-\	16ff/LL	.	4dd\	Twór-	>	4ff\	świat	>	2.r	.	.
.	.	16dd/	.	.	.	.	.	.	.	.	.	.
.	.	16b-/	.	.	.	.	.	.	.	.	.	.
.	.	16f/	.	.	.	.	.	.	.	.	.	.
4A/	.	16ee-/	.	4cc\	.	]	4ee-\	się	]	.	.	.
.	.	16cc/	.	.	.	.	.	.	.	.	.	.
.	.	16a/	.	.	.	.	.	.	.	.	.	.
.	.	16f/	.	.	.	.	.	.	.	.	.	.
4B-/)	.	16dd/	.	4b-\	-cy	.	4dd\	we-	.	.	.	.
.	.	16b-/	.	.	.	.	.	.	.	.	.	.
.	.	16f/	.	.	.	.	.	.	.	.	.	.
.	.	16d/JJ	.	.	.	.	.	.	.	.	.	.
*v	*v	*	*	*	*	*	*	*	*	*	*	*
=42	=42	=42	=42	=42	=42	=42	=42	=42	=42	=42	=42
!	!	!	!	!	!	!	!	!	!	!	!LO:DY:a
2FF/ 2F	16r	.	4a\	świat	.	2cc\	-se-	.	4ff^\	Spoj-	p
.	16f/LL	.	.	.	.	.	.	.	.	.	.
.	16a/	.	.	.	.	.	.	.	.	.	.
.	16cc/	.	.	.	.	.	.	.	.	.	.
.	16ff/	.	4a\	się	.	.	.	.	4ee-\	-rze-	.
.	16cc/	.	.	.	.	.	.	.	.	.	.
.	16a/	.	.	.	.	.	.	.	.	.	.
.	16f/	.	.	.	.	.	.	.	.	.	.
4r	16en/	.	4a\	we-	.	4f/	-li	.	4dd\	-niem	.
!LO:LB:g=original	!	!	!LO:LB:g=original	!	!	!LO:LB:g=original	!	!	!LO:LB:g=original	!	!
.	16f/	.	.	.	.	.	.	.	.	.	.
.	16a/	.	.	.	.	.	.	.	.	.	.
.	16f/JJ)	.	.	.	.	.	.	.	.	.	.
!	!LO:LB:g=original	!	!	!	!	!	!	!	!	!	!
=43	=43	=43	=43	=43	=43	=43	=43	=43	=43	=43	=43
!	!	!	!	!	!	!	!	!	!	!	!LO:DY:a
2GG/ 2G	16r	.	2g/	-se-	.	4r	.	.	2b-\	Twór-	p
.	16B-/LL	<	.	.	.	.	.	.	.	.	.
.	16d/	.	.	.	.	.	.	.	.	.	.
.	16g/JJ	.	.	.	.	.	.	.	.	.	.
.	16cc^/LL	.	.	.	.	4g/	ca-	.	.	.	.
.	16g/	.	.	.	.	.	.	.	.	.	.
.	16d/	.	.	.	.	.	.	.	.	.	.
.	16B-/JJ	.	.	.	.	.	.	.	.	.	.
4EEn/ 4En	16cc^/LL	.	4en/	-li	.	4b-\	-ły	.	4cc\	-cy	.
.	16b-/	.	.	.	.	.	.	.	.	.	.
.	16g/	.	.	.	.	.	.	.	.	.	.
.	16c/JJ	[[	.	.	.	.	.	.	.	.	.
=44	=44	=44	=44	=44	=44	=44	=44	=44	=44	=44	=44
*	*^	*	*	*	*	*	*	*	*	*	*
2FF/ 2F	2dd/	16dd\LL	.	4f/	świat	.	2b-\	świat	.	2dd\	świat	.
.	.	16d\	.	.	.	.	.	.	.	.	.	.
.	.	16f\	.	.	.	.	.	.	.	.	.	.
.	.	16b-\JJ	.	.	.	.	.	.	.	.	.	.
.	.	16dd\LL	.	4B-/	się	.	.	.	.	.	.	.
.	.	16b-\	.	.	.	.	.	.	.	.	.	.
.	.	16f\	.	.	.	.	.	.	.	.	.	.
.	.	16d\JJ	.	.	.	.	.	.	.	.	.	.
4FF/ 4F	8cc/L	16a\LL	.	4f/	we-	.	8a/	się	.	8cc\	się	.
.	.	16f\	.	.	.	.	.	.	.	.	.	.
.	8dd/J	16b-\	.	.	.	.	8b-/	we-	.	8dd\	we-	.
.	.	16f\JJ	.	.	.	.	.	.	.	.	.	.
=45	=45	=45	=45	=45	=45	=45	=45	=45	=45	=45	=45	=45
2FF/ 2F	2ff/	16ff\LL	f	(2f/	-se-	.	2.a/	-se-	.	2ff^\	-se-	.
.	.	16cc\	.	.	.	.	.	.	.	.	.	.
.	.	16a\	.	.	.	.	.	.	.	.	.	.
.	.	16f\	.	.	.	.	.	.	.	.	.	.
.	.	16a\	.	.	.	.	.	.	.	.	.	.
.	.	16f\	.	.	.	.	.	.	.	.	.	.
.	.	16cc\	.	.	.	.	.	.	.	.	.	.
.	.	16a\	.	.	.	.	.	.	.	.	.	.
!	!	!	!	!	!	!	!	!	!	!	!	!LO:DY:a
4FF/ 4F	4ryy	16ff\	.	8f/L	.	.	.	.	.	(8cc\L	.	p
.	.	16cc\	.	.	.	.	.	.	.	.	.	.
.	.	16a\	.	8e-X/J)	.	.	.	.	.	8dd\J)	.	.
.	.	16f\JJ	.	.	.	.	.	.	.	.	.	.
*	*v	*v	*	*	*	*	*	*	*	*	*	*
=46	=46	=46	=46	=46	=46	=46	=46	=46	=46	=46	=46
4BB-\ 4B-	4d/ 4f 4b-	.	4d/	-li,	.	4b-\	-li,	.	4.b-\	-li,	.
4BBB-/ 4BB-	4B-^/	.	4r	.	.	4r	.	.	.	.	.
.	.	.	.	.	.	.	.	.	(8a\L	wie-	.
4r	4r	.	4r	.	.	4r	.	.	8b-\J)	.	.
.	.	.	.	.	.	.	.	.	8dd\	-czną	.
=47	=47	=47	=47	=47	=47	=47	=47	=47	=47	=47	=47
4BBB-/ 4BB-	4r	f	4.B-/	wie-	.	2.r	.	.	2ff\	gło-	.
!	!	!	!	!	!	!LO:PB:g=original	!	!	!	!	!
4D\ 4d	16ff\LL	.	.	.	.	.	.	.	.	.	.
.	16f\	.	.	.	.	.	.	.	.	.	.
.	16b-\	.	8A/	-czną	.	.	.	.	.	.	.
.	16dd\JJ	.	.	.	.	.	.	.	.	.	.
4D\ 4d	16ff#X\LL	<	8B-/	gło-	.	.	.	.	4ff#X^\	-si	.
!LO:PB:g=original	!	!	!	!	!	!	!	!	!LO:PB:g=original	!	!
.	16f#X\	.	.	.	.	.	.	.	.	.	.
.	16b-\	.	8d/	-si	.	.	.	.	.	.	.
!	!	!	!LO:PB:g=original	!	!	!	!	!	!	!	!
.	16ff#\JJ	[[	.	.	.	.	.	.	.	.	.
!	!LO:PB:g=original	!	!	!	!	!	!	!	!	!	!
=48	=48	=48	=48	=48	=48	=48	=48	=48	=48	=48	=48
4E-\ 4e-	4g\ 4gg	.	2.e-/	cześć!	.	4.g/	wie-	.	(2.gg\	cześć!	.
4CC^/ 4E-	4G/ 4g	.	.	.	.	.	.	.	.	.	.
.	.	.	.	.	.	8bn\	-czną	.	.	.	.
4r	4r	.	.	.	.	8cc\	gło-	.	.	.	.
.	.	.	.	.	.	8ee-\	-si	.	.	.	.
=49	=49	=49	=49	=49	=49	=49	=49	=49	=49	=49	=49
(4CC/ 4C	4.g\ 4.ee- 4.gg	f	4.c/	wie-	.	(4gg\	cześć!	.	4ee-\)	.	.
4Bn\	.	.	.	.	.	8ryy	.	.	4r	.	.
.	(8g\L 8dd	.	8Bn/	-czną	.	8dd\L	.	.	.	.	.
8c\L	8g\ 8ee-	.	8c/	gło-	.	8ee-\J)	.	.	8r	.	.
8e-\J)	8g\J) 8cc	.	8e-/	-si	.	8cc\	Ho-	.	8g/	Ho-	.
=50	=50	=50	=50	=50	=50	=50	=50	=50	=50	=50	=50
!	!	!	!	!	!LO:DY:a	!	!	!	!	!	!
2FF/ 2F	2f\ 2a 2ff	.	2f/	cześć	<	(8a\L	-zan-	.	(8fn/L	-zan-	.
.	.	.	.	.	.	8b-\	.	.	8g/	.	.
!	!	!	!	!	!	!	!	!LO:DY:a	!	!	!LO:DY:a
.	.	.	.	.	.	8cc\	.	<	8a/	.	<
.	.	.	.	.	.	8dd\	.	.	8b-/	.	.
4FF/ 4F	4c/ 4e- 4f 4a	.	8f/	gło-	f	8ee-\	.	.	8cc/	.	.
.	.	.	8f/	-si	[[	8een\J)	.	[[	8cc#X/J)	.	[[
=51	=51	=51	=51	=51	=51	=51	=51	=51	=51	=51	=51
*	*^	*	*	*	*	*	*	*	*	*	*
2BBB-/ 2BB-	(4b-/	8d\L 8f	.	4.B-^/	cześć	.	2ff^\	-na	.	2dd^\	-na	.
.	.	8e-\ 8g	.	.	.	.	.	.	.	.	.	.
.	2ryy	8f\ 8a	.	.	.	.	.	.	.	.	.	.
.	.	8g\ 8b-	.	(8B-/L	wie-	.	.	.	.	.	.	.
4BB-\ 4B-	.	8a\ 8cc	.	8A/J)	.	.	4dd\	Ho-	.	4b-\	Ho-	.
.	.	8b-\J) 8dd	.	8B-/	-czną	.	.	.	.	.	.	.
*	*v	*v	*	*	*	*	*	*	*	*	*	*
=52	=52	=52	=52	=52	=52	=52	=52	=52	=52	=52	=52
2DD/ 2D	2d/ 2f#X 2dd	sf	[2d/	gło-	.	(8f#X/L	-zan-	.	(8a\L	-zan-	.
.	.	.	.	.	.	8g/	.	.	8b-\	.	.
.	.	.	.	.	.	8a/	.	.	8cc\	.	.
.	.	.	.	.	.	8b-/	.	.	8dd\	.	.
4DD/ 4D	4d/ 4f# 4a 4cc	f	8d/]	.	.	8cc/	.	.	8een\	.	.
.	.	.	8d/	-si	.	8a/J)	.	.	8ff#X\J)	.	.
=53	=53	=53	=53	=53	=53	=53	=53	=53	=53	=53	=53
!	!	!	!	!	!LO:DY:a	!	!	!LO:DY:a	!	!	!LO:DY:a
4GG/ 4G	4d/ 4g 4b-	.	2G/	cześć	f	2.b-\	-na	f	2.gg\	-na!	f
!	!	!	!	!	!	!LO:LB:g=original	!	!	!LO:LB:g=original	!	!
4GG/ 4G	4g\ 4b- 4gg	.	.	.	.	.	.	.	.	.	.
4EE-X^/ 4E-X	4g\ 4b- 4gg	.	8e-X/	gło-	.	.	.	.	.	.	.
!LO:LB:g=original	!	!LO:LB:g=original	!	!	!	!	!	!	!	!	!
.	.	.	8e-/	-si	.	.	.	.	.	.	.
!	!	!	!LO:LB:g=original	!	!	!	!	!	!	!	!
=54	=54	=54	=54	=54	=54	=54	=54	=54	=54	=54	=54
!	!	!	!	!	!	!LO:TX:a:t=rytm	!	!	!	!	!
4BBB-;/ 4BB-	4f;\ 4b- 4dd 4ff	f	4B-;/	cześć!	.	4dd;\	cześć	.	4ff;\	cześć	.
*clefG2	*	*	*	*	*	*	*	*	*	*	*
4g/	4b-\ 4dd	p	(4g/	.	.	4b-\	wie-	.	4dd\	wie-	.
.	8qff/	.	.	.	.	.	.	.	8qff/	.	.
(8c/L	8g\L 8ee-	.	8c/L)	wiecz-	.	(8a\L	-czną	.	(8ee-\L	-czną	.
8e-/J	8b-\J 8dd	.	8e-/J	-ną	.	8b-\J)	.	.	8dd\J)	.	.
=55	=55	=55	=55	=55	=55	=55	=55	=55	=55	=55	=55
*^	*	*	*	*	*	*	*	*	*	*	*
[2f/)	4ryy	4b-\ 4cc	<	2f/	Twór-	.	(4b-\	Twór-	.	2cc\	Twór-	.
.	4F\	4a\ 4cc	.	.	.	.	4a\)	.	.	.	.	.
4f/]	4B-\	4a-X\ 4dd	[	4B-/	-cy	.	4a-X\	-cy	.	4dd^\	-cy	.
*v	*v	*	*	*	*	*	*	*	*	*	*	*
=56	=56	=56	=56	=56	=56	=56	=56	=56	=56	=56	=56
*	*^	*	*	*	*	*	*	*	*	*	*
!	!LO:TX:b:t=dolce.	!	!	!	!	!	!	!	!	!	!	!
[4c/	4ff/	2g\	p	4e-/	świat	.	2g/	świat	.	4ff\	świat	.
(8c/L]	8ee-/L	.	.	(8c/L	gło-	.	.	.	.	(8ee-\L	gło-	.
8d/	8dd/J	.	.	8d/J)	.	.	.	.	.	8dd\J)	.	.
!	!LO:TX:b:t=ral.	!	!	!	!	!	!	!	!	!LO:TX:a:t=rall	!	!
8e-/	8cc/L	4a\	.	(8e-/L	-si	.	8a/	gło-	.	(8cc\L	-si	.
8f/J)	8dd/J	.	.	8f/J)	.	.	8f/	-si	.	8dd\J)	.	.
*	*v	*v	*	*	*	*	*	*	*	*	*	*
*clefF4	*	*	*	*	*	*	*	*	*	*	*
=57	=57	=57	=57	=57	=57	=57	=57	=57	=57	=57	=57
!LO:TX:a:t=a tempo	!	!	!	!	!	!	!	!	!LO:TX:a:t=a tempo	!	!
2BB-\ 2B-	16b-\LL	f	4B-/	cześć!	.	4b-\	cześć!	.	4b-\	cześć!	.
.	16f\	.	.	.	.	.	.	.	.	.	.
.	16d\	.	.	.	.	.	.	.	.	.	.
.	16f\JJ	.	.	.	.	.	.	.	.	.	.
.	16b-\LL	.	4r	.	.	4r	.	.	4r	.	.
.	16d\	.	.	.	.	.	.	.	.	.	.
.	16f\	.	.	.	.	.	.	.	.	.	.
.	16b-\JJ	.	.	.	.	.	.	.	.	.	.
!	!	!	!	!	!LO:DY:a	!	!	!LO:DY:a	!	!	!LO:DY:a
4BB-\ 4B-	16dd\LL	.	4b-\	Ho-	f	4dd\	Ho-	f	4ff\	Ho-	f
.	16f\	.	.	.	.	.	.	.	.	.	.
.	16b-\	.	.	.	.	.	.	.	.	.	.
.	16dd\JJ	.	.	.	.	.	.	.	.	.	.
=58	=58	=58	=58	=58	=58	=58	=58	=58	=58	=58	=58
2.BB-\ 2.B-	16ff\LL	f	2.dd\	-zan-	.	2.dd\	-zan-	.	2.ff\	-zan-	.
!LO:LB:g=original	!	!	!LO:LB:g=original	!	!	!LO:LB:g=original	!	!	!LO:LB:g=original	!	!
.	16dd\	.	.	.	.	.	.	.	.	.	.
.	16b-\	.	.	.	.	.	.	.	.	.	.
.	16f\JJ	.	.	.	.	.	.	.	.	.	.
.	16dd\LL	.	.	.	.	.	.	.	.	.	.
.	16b-\	.	.	.	.	.	.	.	.	.	.
.	16f\	.	.	.	.	.	.	.	.	.	.
.	16d\JJ	.	.	.	.	.	.	.	.	.	.
.	16f/LL	.	.	.	.	.	.	.	.	.	.
.	16d/	.	.	.	.	.	.	.	.	.	.
.	16f/	.	.	.	.	.	.	.	.	.	.
.	16b-/JJ	.	.	.	.	.	.	.	.	.	.
!	!LO:LB:g=original	!	!	!	!	!	!	!	!	!	!
=59	=59	=59	=59	=59	=59	=59	=59	=59	=59	=59	=59
2BB-\ 2B-	16dd/LL	.	(4b-\	-na	.	2b-\	-na	.	2dd\	-na	.
.	16b-/	.	.	.	.	.	.	.	.	.	.
.	16f/	.	.	.	.	.	.	.	.	.	.
.	16d/JJ	.	.	.	.	.	.	.	.	.	.
.	16f/LL	.	4d/)	.	.	.	.	.	.	.	.
.	16d/	.	.	.	.	.	.	.	.	.	.
.	16f/	.	.	.	.	.	.	.	.	.	.
.	16b-/JJ	.	.	.	.	.	.	.	.	.	.
4BB-\ 4B-	16dd/LL	.	4f/	Ho-	.	4b-\	Ho-	.	4dd\	Ho-	.
.	16f/	.	.	.	.	.	.	.	.	.	.
.	16b-/	.	.	.	.	.	.	.	.	.	.
.	16dd/JJ	.	.	.	.	.	.	.	.	.	.
=60	=60	=60	=60	=60	=60	=60	=60	=60	=60	=60	=60
*^	*	*	*	*	*	*	*	*	*	*	*
(4B-/	2.BB-\	16ff^\LL	.	(4B-/	-zan-	.	(4dd\	-zan-	.	(4ff\	-zan-	.
.	.	16dd\	.	.	.	.	.	.	.	.	.	.
.	.	16b-\	.	.	.	.	.	.	.	.	.	.
.	.	16f\JJ	.	.	.	.	.	.	.	.	.	.
4A/	.	16ee-^\LL	.	4A/	.	.	4cc\	.	.	4ee-\	.	.
.	.	16cc\	.	.	.	.	.	.	.	.	.	.
.	.	16a\	.	.	.	.	.	.	.	.	.	.
.	.	16f\JJ	.	.	.	.	.	.	.	.	.	.
4B-/)	.	16dd^\LL	.	4B-/)	.	.	4b-\)	.	.	4dd\)	.	.
.	.	16b-\	.	.	.	.	.	.	.	.	.	.
.	.	16f\	.	.	.	.	.	.	.	.	.	.
.	.	16d\JJ	.	.	.	.	.	.	.	.	.	.
*v	*v	*	*	*	*	*	*	*	*	*	*	*
=61	=61	=61	=61	=61	=61	=61	=61	=61	=61	=61	=61
2.FF\ 2.F	16cc\LL	.	2f/	-na!	.	2a\	-na!	.	2cc\	-na!	.
.	16f\	.	.	.	.	.	.	.	.	.	.
.	16a\	.	.	.	.	.	.	.	.	.	.
.	16cc\	.	.	.	.	.	.	.	.	.	.
.	16ff\	.	.	.	.	.	.	.	.	.	.
.	16cc\	.	.	.	.	.	.	.	.	.	.
.	16a\	.	.	.	.	.	.	.	.	.	.
.	16f\	.	.	.	.	.	.	.	.	.	.
.	16en\	.	4r	.	.	4r	.	.	4r	.	.
.	16f\	.	.	.	.	.	.	.	.	.	.
.	16g\	.	.	.	.	.	.	.	.	.	.
.	16a\JJ	.	.	.	.	.	.	.	.	.	.
=62	=62	=62	=62	=62	=62	=62	=62	=62	=62	=62	=62
2GG\ 2G	16b-\LL	.	4r	.	.	4r	.	.	2b-\	wie-	.
.	16cc\	.	.	.	.	.	.	.	.	.	.
.	16b-\	.	.	.	.	.	.	.	.	.	.
.	16a\	.	.	.	.	.	.	.	.	.	.
!	!	!	!	!	!LO:DY:a	!	!	!	!	!	!
.	16b-\	.	(8g/L	wie-	f	4r	.	.	.	.	.
.	16g\	.	.	.	.	.	.	.	.	.	.
.	16a\	.	8f/J	.	.	.	.	.	.	.	.
.	16b-\	.	.	.	.	.	.	.	.	.	.
4EEn^/ 4En	16cc\	.	8en/)	.	.	4b-^\	wiecz-	.	4cc\	-czną	.
!LO:PB:g=original	!	!	!	!	!	!LO:PB:g=original	!	!	!LO:PB:g=original	!	!
.	16b-\	.	.	.	.	.	.	.	.	.	.
.	16a\	.	8g/	-czną	.	.	.	.	.	.	.
!	!	!	!LO:PB:g=original	!	!	!	!	!	!	!	!
.	16g\JJ	.	.	.	.	.	.	.	.	.	.
!	!LO:PB:g=original	!	!	!	!	!	!	!	!	!	!
=63	=63	=63	=63	=63	=63	=63	=63	=63	=63	=63	=63
*	*^	*	*	*	*	*	*	*	*	*	*
2FF/ 2F	2dd/	16dd\LL	.	2f/	Twór-	.	2b-\	-ną	.	2dd\	Twór-	.
.	.	16f\	.	.	.	.	.	.	.	.	.	.
.	.	16en\	.	.	.	.	.	.	.	.	.	.
.	.	16f\JJ	.	.	.	.	.	.	.	.	.	.
.	.	16dd\LL	.	.	.	.	.	.	.	.	.	.
.	.	16f\	.	.	.	.	.	.	.	.	.	.
.	.	16b-\	.	.	.	.	.	.	.	.	.	.
.	.	16f\JJ	.	.	.	.	.	.	.	.	.	.
!	!	!	!	!	!	!LO:DY:a	!	!	!LO:DY:a	!	!	!LO:DY:a
4FF/ 4F	8cc/L	16a\LL	.	4f/	-cy	<[	4f/	mu	<[	(8cc\L	-cy	<
.	.	16f\	.	.	.	.	.	.	.	.	.	.
.	8dd/J	16b-\	.	.	.	.	.	.	.	8b-\J)	.	[[
.	.	16f\JJ	.	.	.	.	.	.	.	.	.	.
=64	=64	=64	=64	=64	=64	=64	=64	=64	=64	=64	=64	=64
2FF/ 2F	2ff/	16ff\LL	.	2f^/	świat	.	2a^/	świat	.	2ff^\	świat	.
.	.	16cc\	.	.	.	.	.	.	.	.	.	.
.	.	16a\	.	.	.	.	.	.	.	.	.	.
.	.	16f\JJ	.	.	.	.	.	.	.	.	.	.
.	.	16a\LL	.	.	.	.	.	.	.	.	.	.
.	.	16f\	.	.	.	.	.	.	.	.	.	.
.	.	16cc\	.	.	.	.	.	.	.	.	.	.
.	.	16a\JJ	.	.	.	.	.	.	.	.	.	.
4FF/ 4F	4ryy	16ff\LL	.	8f/	gło-	.	8a/	gło-	.	8cc\	gło-	.
.	.	16cc\	.	.	.	.	.	.	.	.	.	.
.	.	16a\	.	8f/	-si	.	8a/	-si	.	8dd\	-si	.
.	.	16f\JJ	.	.	.	.	.	.	.	.	.	.
*	*v	*v	*	*	*	*	*	*	*	*	*	*
=65	=65	=65	=65	=65	=65	=65	=65	=65	=65	=65	=65
(4BB-/	16b-\LL	<	4B-/	cześć!	.	4b-\	cześć!	.	4b-\	cześć!	.
.	16f\	.	.	.	.	.	.	.	.	.	.
.	16d\	.	.	.	.	.	.	.	.	.	.
.	16f\JJ	.	.	.	.	.	.	.	.	.	.
4D/	16b-\LL	[	4r	.	.	4r	.	.	4r	.	.
.	16f\	.	.	.	.	.	.	.	.	.	.
.	16d\	>	.	.	.	.	.	.	.	.	.
.	16f\JJ	.	.	.	.	.	.	.	.	.	.
4E-\	16cc\LL	.	4r	.	.	4r	.	.	4r	.	.
.	16g\	.	.	.	.	.	.	.	.	.	.
.	16c\	]	.	.	.	.	.	.	.	.	.
.	16g\JJ	.	.	.	.	.	.	.	.	.	.
=66	=66	=66	=66	=66	=66	=66	=66	=66	=66	=66	=66
4F\)	4c/ 4f 4b-	>	2.r	.	.	2.r	.	.	2.r	.	.
4F\	8c/L 8f 8a	.	.	.	.	.	.	.	.	.	.
.	8g/	.	.	.	.	.	.	.	.	.	.
4F\	8c/ 8f 8a	.	.	.	.	.	.	.	.	.	.
.	8f/J	]	.	.	.	.	.	.	.	.	.
=67	=67	=67	=67	=67	=67	=67	=67	=67	=67	=67	=67
!	!	!	!	!	!LO:DY:a	!	!	!	!	!	!
(4BB-\ 4B-	4d/ 4f 4b-	.	4b-\	Śpie-	<	2.r	.	.	2.r	.	.
!	!	!	!	!	!LO:DY:a	!LO:LB:g=original	!	!	!LO:LB:g=original	!	!
4d\	16r	p	4b-\	-waj-	[ >	.	.	.	.	.	.
.	16f/LL	.	.	.	.	.	.	.	.	.	.
.	16b-/	.	.	.	.	.	.	.	.	.	.
.	16f/JJ	.	.	.	.	.	.	.	.	.	.
(4e-\)	16r	.	4cc\	-cie	]	.	.	.	.	.	.
!LO:LB:g=original	!	!	!LO:LB:g=original	!	!	!	!	!	!	!	!
.	16g/LL	.	.	.	.	.	.	.	.	.	.
.	16cc/	.	.	.	.	.	.	.	.	.	.
.	16g/JJ	.	.	.	.	.	.	.	.	.	.
!	!LO:LB:g=original	!	!	!	!	!	!	!	!	!	!
=68	=68	=68	=68	=68	=68	=68	=68	=68	=68	=68	=68
8F\) 8f	8b-'\	.	(4b-/	Pa-	.	2.r	.	.	2.r	.	.
8r	8r	.	.	.	.	.	.	.	.	.	.
8F\ 8c	8f'/ 8a 8cc	.	8a/L	.	.	.	.	.	.	.	.
8r	8r	.	8g/J)	.	.	.	.	.	.	.	.
8F\ 8c	8f'\ 8a 8ff	.	(8a/L	-nu	.	.	.	.	.	.	.
8r	8r	.	8f/J)	.	.	.	.	.	.	.	.
=69	=69	=69	=69	=69	=69	=69	=69	=69	=69	=69	=69
4B-\ 4d	16r	.	4b-/	słoń-	.	4r	.	.	2.r	.	.
.	(16f/LL	.	.	.	.	.	.	.	.	.	.
.	16b-/	.	.	.	.	.	.	.	.	.	.
.	16f/JJ)	.	.	.	.	.	.	.	.	.	.
!	!	!	!	!	!	!	!	!LO:DY:a	!	!	!
4BB-/	16r	.	4d/	-ca	.	(4b-\	Śpie-	<	.	.	.
.	(16d/LL	.	.	.	.	.	.	.	.	.	.
.	16b-/	.	.	.	.	.	.	.	.	.	.
.	16f/JJ)	.	.	.	.	.	.	.	.	.	.
4E-\	16r	.	4e-/	a-	.	4cc\)	.	[	.	.	.
.	(16e-/LL	.	.	.	.	.	.	.	.	.	.
.	16cc/	.	.	.	.	.	.	.	.	.	.
.	16g/JJ)	.	.	.	.	.	.	.	.	.	.
=70	=70	=70	=70	=70	=70	=70	=70	=70	=70	=70	=70
4F\	8f/L	<	(4d/	-nie-	.	(4b-\	-waj-	.	4r	.	.
.	(16f/L	.	.	.	.	.	.	.	.	.	.
.	16g/JJ	.	.	.	.	.	.	.	.	.	.
4F\ 4c	16a\LL	.	8c/L	.	.	8a/L	.	.	4r	.	.
.	16b-\	.	.	.	.	.	.	.	.	.	.
.	16cc\	.	8e-/J)	.	.	8g/J)	.	.	.	.	.
.	16dd\JJ	.	.	.	.	.	.	.	.	.	.
4F\ 4c	16ee-\LL	.	4f/	-li	.	4a/	-cie	.	(8ff\L	Śpie-	.
.	16ff\	.	.	.	.	.	.	.	.	.	.
.	16gg\	.	.	.	.	.	.	.	8ee-\J)	.	.
.	16aa\JJ)	[[	.	.	.	.	.	.	.	.	.
=71	=71	=71	=71	=71	=71	=71	=71	=71	=71	=71	=71
!	!	!	!	!	!	!	!	!	!	!	!LO:DY:a
4BB-\ 4B-	4bb-\	.	4B-/	śpie-	.	2f/	Pa-	.	(4dd\	-waj-	<
!	!	!	!	!	!	!	!	!	!	!	!LO:DY:a
[2BB-\ [2B-	(16b-\LL	.	4d/	-waj-	.	.	.	.	4b-\)	.	[ >
.	16d\	.	.	.	.	.	.	.	.	.	.
.	16f\	.	.	.	.	.	.	.	.	.	.
.	16d\JJ	.	.	.	.	.	.	.	.	.	.
.	16cc\LL	.	4en/	-cie	.	4g/	-nu	.	4cc\	-cie	]
.	16en\	.	.	.	.	.	.	.	.	.	.
.	16g\	.	.	.	.	.	.	.	.	.	.
.	16e\JJ	.	.	.	.	.	.	.	.	.	.
=72	=72	=72	=72	=72	=72	=72	=72	=72	=72	=72	=72
2BB-\] 2B-]	16cc\LL	.	(4e-X/	Pa-	.	(4g/	słoń-	.	2cc\	Pa-	.
.	16e-X\	.	.	.	.	.	.	.	.	.	.
.	16g\	.	.	.	.	.	.	.	.	.	.
.	16e-\JJ	.	.	.	.	.	.	.	.	.	.
.	16a\LL	.	8f/L	.	.	8a/L	.	.	.	.	.
.	16e-\	.	.	.	.	.	.	.	.	.	.
.	16f\	.	8e-/J)	.	.	8f/J)	.	.	.	.	.
.	16e-\JJ	.	.	.	.	.	.	.	.	.	.
4BB-\ 4B-	16d\LL	.	4d/	-nu	.	4f/	-ca	.	4b-\	-nu	.
!LO:LB:g=original	!	!	!LO:LB:g=original	!	!	!LO:LB:g=original	!	!	!LO:LB:g=original	!	!
.	16f\	.	.	.	.	.	.	.	.	.	.
.	16b-\	.	.	.	.	.	.	.	.	.	.
.	16dd\JJ)	.	.	.	.	.	.	.	.	.	.
!	!LO:LB:g=original	!	!	!	!	!	!	!	!	!	!
=73	=73	=73	=73	=73	=73	=73	=73	=73	=73	=73	=73
4EE-/ 4E-	(16b-/LL	.	(8e-/	słoń-	.	4g/	słoń-	.	4b-/	słoń-	.
.	16c/	.	.	.	.	.	.	.	.	.	.
.	16g/	.	8c/)	.	.	.	.	.	.	.	.
.	16b-/JJ	.	.	.	.	.	.	.	.	.	.
!LO:TX:a:t=rall.	!	!	!	!	!	!	!	!	!	!	!
4FF/ 4F	16a/LL	.	4f/	-ca	.	4f/	-ca	.	(8a/L	-ca	.
.	16c/	.	.	.	.	.	.	.	.	.	.
.	16e-/	.	.	.	.	.	.	.	8g/J)	.	.
.	16f/JJ	.	.	.	.	.	.	.	.	.	.
!	!	!	!LO:TX:a:t=rall.	!	!	!LO:TX:a:t=rall.	!	!	!LO:TX:a:t=rall.	!	!
4FF/ 4F	16a/LL	.	4f/	a-	.	8e-/	i	.	8a\	i	.
.	16f/	.	.	.	.	.	.	.	.	.	.
.	16a/	.	.	.	.	8e-/	a-	.	8cc\	a-	.
.	16ff/JJ)	.	.	.	.	.	.	.	.	.	.
=74	=74	=74	=74	=74	=74	=74	=74	=74	=74	=74	=74
4BB-\ 4B-	16b-/LL	.	2.B-/	-nie-	.	2.d/	-nie-	.	2.b-\	-nie-	.
.	16d/	.	.	.	.	.	.	.	.	.	.
.	16f/	>	.	.	.	.	.	.	.	.	.
.	16b-/JJ	.	.	.	.	.	.	.	.	.	.
4FF/ 4F	16d/LL	.	.	.	.	.	.	.	.	.	.
.	16f/	.	.	.	.	.	.	.	.	.	.
.	16b-/	.	.	.	.	.	.	.	.	.	.
.	16dd/JJ	.	.	.	.	.	.	.	.	.	.
4DD/ 4D	16f\LL	.	.	.	.	.	.	.	.	.	.
.	16b-\	.	.	.	.	.	.	.	.	.	.
.	16dd\	]	.	.	.	.	.	.	.	.	.
.	16ff\JJ	.	.	.	.	.	.	.	.	.	.
=75	=75	=75	=75	=75	=75	=75	=75	=75	=75	=75	=75
4BBB-/ 4BB-	4b-\ 4dd 4ff 4bb-	.	2b-\	-li!	.	2d/	-li!	.	2b-\	-li!	.
4r	4r	.	.	.	.	.	.	.	.	.	.
4r	4r	.	8r	.	.	8r	.	.	8r	.	.
!	!	!	!	!	!LO:DY:a	!	!	!LO:DY:a	!	!	!LO:DY:a
.	.	.	8b-\	Ho-	f	8dd\	Ho-	f	8ff\	Ho-	f
=76	=76	=76	=76	=76	=76	=76	=76	=76	=76	=76	=76
2.r	2.r	.	2.b-\	-zan-	.	2.dd\	-zan-	.	2.ff\	-zan-	.
=77	=77	=77	=77	=77	=77	=77	=77	=77	=77	=77	=77
2.r	2.r	.	2b-\	-na	.	2b-\	-na	.	2dd\	-na	.
.	.	.	8r	.	.	8r	.	.	8r	.	.
.	.	.	8d/	Ho-	.	8f/	Ho-	.	8b-\	Ho-	.
=78	=78	=78	=78	=78	=78	=78	=78	=78	=78	=78	=78
2.r	2.r	.	2.B-/	-zan-	.	2.f/	-zan-	.	2.dd\	-zan-	.
=79	=79	=79	=79	=79	=79	=79	=79	=79	=79	=79	=79
*^	*	*	*	*	*	*	*	*	*	*	*
4r	2.BBB-\	(8BBB-/L	???	2.B-;/	-na!	.	2.d;/	-na!	.	2.b-;\	-na!	.
.	.	16DD/L	.	.	.	.	.	.	.	.	.	.
.	.	16FF/JJ	.	.	.	.	.	.	.	.	.	.
2BB-\	.	24r	.	.	.	.	.	.	.	.	.	.
!	!	!LO:TX:t=P:problem:mixed beam	!	!	!	!	!	!	!	!	!	!
.	.	24D/LL	.	.	.	.	.	.	.	.	.	.
.	.	24F/	.	.	.	.	.	.	.	.	.	.
.	.	24B-/	.	.	.	.	.	.	.	.	.	.
.	.	24d/	.	.	.	.	.	.	.	.	.	.
.	.	24f/JJ	.	.	.	.	.	.	.	.	.	.
.	.	24b-\LL	.	.	.	.	.	.	.	.	.	.
.	.	24dd\	.	.	.	.	.	.	.	.	.	.
.	.	24ff\	.	.	.	.	.	.	.	.	.	.
.	.	24bb-\	.	.	.	.	.	.	.	.	.	.
.	.	24ddd\	.	.	.	.	.	.	.	.	.	.
.	.	24fff\JJ)	.	.	.	.	.	.	.	.	.	.
*v	*v	*	*	*	*	*	*	*	*	*	*	*
=80	=80	=80	=80	=80	=80	=80	=80	=80	=80	=80	=80
2.BBB-;/ 2.BB-	2.bbb-;\	.	2.r;	.	.	2.r;	.	.	2.r;	.	.
==	==	==	==	==	==	==	==	==	==	==	==
*-	*-	*-	*-	*-	*-	*-	*-	*-	*-	*-	*-
!!!system-decoration: [(s1,s2,s3)][(s4,s5)]
!!!AIN: 1 alto 1 mezzo 2 piano 1 soprn
!!!ENC: Andrzej Gręziak
!!!END: 2022-02-20
!!!END: Julita Ruszuk
!!!END: 2022-03-29
